icons/backpack.svg

<svg width="24" height="24" viewBox="0 0 24 24" fill="none" xmlns="http://www.w3.org/2000/svg">
<path d="M8.786 5.333H15.214M8.786 5.333C8.786 3.493 10.225 2 12 2C13.775 2 15.214 3.492 15.214 5.333M15.214 5.333C17.581 5.333 19.5 7.323 19.5 9.778C18.8458 12.4674 18.8414 15.2925 19.4956 17.982C19.4985 17.994 19.5 18.0063 19.5 18.0186C19.4899 20.2192 17.7029 22 15.5 22H8.5C6.29708 22 4.51008 20.2192 4.50004 18.0186C4.49999 18.0063 4.50147 17.994 4.50438 17.982C5.15859 15.2925 5.15421 12.4674 4.5 9.778C4.5 7.323 6.419 5.333 8.786 5.333M4.5 9.778C7.93421 15.374 16.0661 15.3742 19.5 9.778" stroke="black" stroke-width="2" stroke-linecap="round" stroke-linejoin="round"/>
<path d="M13 10H11" stroke="black" stroke-width="2" stroke-linecap="round" stroke-linejoin="round"/>
</svg>

<svg xmlns="http://www.w3.org/2000/svg" width="24" height="24" viewBox="0 0 24 24" fill="none" stroke="currentColor" stroke-width="2" stroke-linecap="round" stroke-linejoin="round">
<path d="M8.786 5.333h6.428m-6.428 0C8.786 3.493 10.225 2 12 2s3.214 1.492 3.214 3.333m0 0c2.367 0 4.286 1.99 4.286 4.445a17.4 17.4 0 0 0-.004 8.204l.004.037a4 4 0 0 1-4 3.981h-7a4 4 0 0 1-4-3.981q0-.02.004-.037c.655-2.69.65-5.515-.004-8.204 0-2.455 1.919-4.445 4.286-4.445M4.5 9.778c3.434 5.596 11.566 5.596 15 0M13 10h-2"/>
</svg>
